X: 4
T: Farewell To Whiskey
R: polka
M: 2/4
L: 1/8
K: Gmaj
|: EG G/B/A/G/ | BEEG/2E/2 | DG B/A/G/A/ | d2 Bd |e/f/g/e/ dB | c/B/A/G/ AB | DG B/A/G/A/ | BG G2 :||: dB/d/ gf/g/ | e/f/g/e/ dB | dB/d/ gf/g/ | ef g2 |e/f/g/e/ dB | c/B/A/G/ AB | DG B/A/G/A/ | BG G2 :|


Tune 1529	Setting 14928

